X: 1
T:The Mists of Time  "CCPB Okt-1995"
M:3/4
L:1/8
Q:80
C:Arr. Kim Persson
S:
K:HP
|: {g}A2|
{GdG}e2-e3/2d/2{g}e/2g3/2|
{ag}a2{ef}e2-ef|  !
{gf}g2-g3/2f/2{g}e/2d3/2|
{gef}e2-e2{g}A2|
{GdG}e2-e3/2d/2{g}e/2g3/2|  !
e/2{g}d3/2-d2e2|
{gBG}B2-B3/2A/2{g}B/2d3/2|
{gBG}B2-B2{g}A2|  !
{GdG}e2-e3/2d/2{g}e/2g3/2|
{ag}a2{ef}e2-ef|
{gf}g2-g3/2f/2{g}e/2d3/2|  !
{gef}e2-e2{g}A2|
{GdG}e2-e3/2d/2{g}e/2g3/2|
{ef}e2-e3/2d/2{g}B/2{d}G3/2|  !
{g}A2-A2-A2|
{GAG}A2-A2:| |:
{g}A2|  !
{g}c2-c3/2d/2{g}c/2{d}A3/2|
{g}c2-c3/2d/2{g}c/2{d}A3/2|
{g}f2-f3/2g/2{a}f/2d3/2|  !
{g}f2-f3/2g/2{a}f/2d3/2|
{g}c2-c3/2d/2{g}c3/2{d}A/2|
{g}e2-ef{g}ec|  !
{g}e2{g}B2-B2|
-B2-B2-B2|
{g}c2-c3/2d/2{g}c/2{d}A3/2|  !
{g}c2-c3/2d/2{g}c/2{d}A3/2|
{g}f2-f3/2g/2{a}f/2d3/2|
{g}f2-f3/2g/2{a}f/2d3/2|  !
{g}c2-c3/2B/2{g}c/2e3/2|
{A}e2{g}B2e2|
{g}A2-A2-A2|  !
{GAG}A2-A2:|
